X:1
T:Title
%%score 1 ( 2 3 4 )
L:1/8
Q:1/4=110
M:4/4
K:C
V:1 treble nm="Grand Piano, Treble Clef"
V:2 bass nm="Choir Pad, Huachuca, CMD"
V:3 bass 
V:4 bass 
V:1
 G2 c2- c/ z/ G EC | EG c6 | [EG]2 [FA]2 [GB]2 [Ac]2 | [Ad]2 [Gd]6 | G2 c2- c/ z/ G AG | AB c6 | %6
w: By~James~W.~Miller,~1918 * * * * *||||||
 [Fd]2 [Ge]2- [Ge]/ z/ [Fd] [Ec]2 | [FB]2 [Ec]6 | z2 [EA]2 [EA]>[EB] [Ec][EB] | [EA][Ac] [^Ge]6 | %10
w: ||||
 z2 A2 [EA]>[EB] [Ac]2 | [Ad]2 [^Ge]6 | z2 [Ge]2 [Ge]>[Fd] [Ec]2 | [EG]2 [FA]2 [GB]2 [Ac]2 | %14
w: ||||
 [Ad]2 [Ge]2- [Ge]/ z/ [Ec] [DB]2 | [Fd]2 [Ec]6- | [Ec]2 z2 z4 |] %17
w: |||
V:2
 G,2 C2- C/ z/ G, E,C, | E,G, C6 | [C,C]2 [F,C]2 [F,C]2 [F,C]2 | [^F,C]2 [G,B,]6 | %4
 G,2 C2- C/ z/ G, A,G, | A,B, C6 | [A,C]2 [G,C]2- [G,C]/ z/ G, G,2 | [G,,G,]2 [C,G,]6 | %8
 z2 [A,C]2 [A,C]>[A,D] [A,E][A,D] | z4 B,>B,- B,2 | z2 [A,C]2 [A,C]>[A,D] [A,E]2 | z4 B,>B,- B,2 | %12
 z2 [C,C]2 [C,C]>[C,C] [C,C]2 | [C,C]2 [F,C]2 [F,C]2 [F,C]2 | %14
 [^F,C]2 [G,C]2- [G,C]/ z/ G, [G,,G,]2 | [G,,G,]2 [C,G,]6- | [C,G,]2 z2 z4 |] %17
V:3
 x8 | x8 | x8 | x8 | x8 | x8 | x8 | x8 | x8 | [A,C][A,C] B,->[^G,B,] z/ C,/.G, E2 | x8 | %11
 [F,A,]2 B,->[^G,B,] z .G, E2 | x8 | x8 | x8 | x8 | x8 |] %17
V:4
 x8 | x8 | x8 | x8 | x8 | x8 | x8 | x8 | x8 | z2 E,E,- E,4 | x8 | z2 E,E,- E,<E,- E,2 | x8 | x8 | %14
 x8 | x8 | x8 |] %17

